src/assets/img/cafeterias_g.svg

<svg fill="none" viewBox="0 0 150 200" xmlns="http://www.w3.org/2000/svg"><g fill="#fff"><path clip-rule="evenodd" d="m92.6432 167.162h-42.0338c-9.7257 0-17.6094-7.885-17.6094-17.609v-56.5642h77.253v11.6282c1.65-.381 3.367-.582 5.13-.582 12.57 0 22.761 10.19 22.761 22.76 0 12.571-10.191 22.761-22.761 22.761-1.762 0-3.48-.202-5.13-.582v.579c0 9.724-7.884 17.609-17.6098 17.609zm22.7398-52.878c-1.832 0-3.567.392-5.13 1.097v22.83c1.562.704 3.296 1.095 5.13 1.095 6.91 0 12.511-5.601 12.511-12.511 0-6.909-5.601-12.511-12.511-12.511z" fill-rule="evenodd"/><path d="m65.3406 46.7762c4.7982 8.7398 10.127 18.4463 4.1167 31.9014 26.6086-16.1434 20.3377-25.2876 12.8885-36.1497-5.789-8.4413-12.2895-17.9201-4.6228-32.5279-24.3265 15.02-18.8342 25.0241-12.3824 36.7762z"/></g></svg>

<svg viewBox="0 0 150 200" fill="none" xmlns="http://www.w3.org/2000/svg">
<path fill-rule="evenodd" clip-rule="evenodd" d="M92.6432 167.162H50.6094C40.8837 167.162 33 159.277 33 149.553V92.9888H110.253V104.617C111.903 104.236 113.62 104.035 115.383 104.035C127.953 104.035 138.144 114.225 138.144 126.795C138.144 139.366 127.953 149.556 115.383 149.556C113.621 149.556 111.903 149.354 110.253 148.974V149.553C110.253 159.277 102.369 167.162 92.6432 167.162ZM115.383 114.284C113.551 114.284 111.816 114.676 110.253 115.381V138.211C111.815 138.915 113.549 139.306 115.383 139.306C122.293 139.306 127.894 133.705 127.894 126.795C127.894 119.886 122.293 114.284 115.383 114.284Z" fill="white"/>
<path d="M65.3406 46.7762C70.1388 55.516 75.4676 65.2225 69.4573 78.6776C96.0659 62.5342 89.795 53.39 82.3458 42.5279C76.5568 34.0866 70.0563 24.6078 77.723 10C53.3965 25.02 58.8888 35.0241 65.3406 46.7762Z" fill="white"/>
</svg>
